X: 16152
T: Green Island, The
R: hornpipe
M: 4/4
K: Dmajor
|:A|dcdA Bcde|gfed cBAG|FAdf gfed|
d2 A2A2Bc|dAeA fAgA|agfe dcBA|dfeg faeg|f2 d2 d2:|
|:fg|agfe defg|b2 e2 e2 ed|cAeA gfed|
c2 A2 A2 Bc|dAeA fAgA|agfe dcBA|dfeg faeg|f2 d2 d2:|

